X:1
T:When Love Shines In
T:When Love Shines In
T:William James Kirkpatrick
T:Carrie Elizabeth Ellis Breck, 1874
T:Public Domain Courtesy of the Cyber Hymnal™
T:Public Domain Courtesy of the Cyber Hymnal™
C:William James Kirkpatrick
Z:Public Domain
Z:Courtesy of the Cyber Hymnal™
%%score ( 1 2 ) ( 3 4 )
L:1/8
Q:1/4=110
M:6/8
K:Eb
V:1 treble 
V:2 treble 
V:3 bass 
V:4 bass 
V:1
 E2 [EF] [EG]2 [FA] | [GB]2 [Ac] [GB][EG][DF] | E3 [EG]3 | [DF]6 | [DF]2 [DF] [DF]2 [EG] | %5
w: 1.~Je- sus comes with|power to glad- den, when|love shines|in,|Ev- ery life that|
w: 2.~How the world will|grow with beau- ty, when|love shines|in,|And the heart re-|
w: 3.~Dark- est sor- row|will grow bright- er, when|love shines|in,|And the heav- iest|
w: 4.~We may have un-|fad- ing splen- dor, when|love shines|in,|And a friend- ship|
 [FA]2 [FA] [FA][GB][Ac] | [Ac]3 [FA]3 | [EG]6 | [GB]2 [GB] (Bc)[Gd] | [Ge]2 [Ac] [GB]3 | %10
w: woe can sad- den, when|love shines|in.|Love will teach * us|how to pray,|
w: joice in du- ty, when|love shines|in.|Tri- als may * be|sanc- ti- fied,|
w: bur- den light- er, when|love shines|in.|’Tis the glor- * y|that will throw|
w: true and ten- der, when|love shines|in.|When earth’s vic- * t’ries|shall be won,|
 [DA]2 [DA] (AB)[Dc] | [Ac]2 [FA] [EG]3 | E2 F G2 A | (B[Ge])[Fd] [Ge]2 [FA] | [EG]3 [DF]3 | %15
w: love will drive * the|gloom a- way,|Turn our dark- ness|in- * to day, when|love shines|
w: and the soul * in|peace a- bide,|Life will all be|glor- * i- fied, when|love shines|
w: light to show * us|where to go;|O, the heart shall|bless- * ing know, when|love shines|
w: and our life * in|heav’n be- gun,|There will be no|need * of sun, when|love shines|
 E3- E2 ||"^Refrain" [GB] | [GB]3 [EG]3 | [GB]3- [GB]2 [GB] | [Ac]3 ([EA]2 [Ac]) | [GB]3- [GB]2 z | %21
w: in. *||||||
w: in. *|When|love shines|in, * when|love shines *|in, *|
w: in. *||||||
w: in. *||||||
 [Ge]2 [Ge] (ed)[Gc] | [Ff]2 [Ff] [Ff][Fd][DB] | d3 c3 | (z [DF][EG] B3) [EFG][FA] | [EG]3 [GB]3 | %26
w: |||||
w: How the heart * is|tuned to sing- ing, when|love shines|* * * in, When|* love|
w: |||||
w: |||||
 [Ge]3- [Ge]2 [GB] | [Ac]3 ([EA]2 [Ac]) | [GB]3- [GB]2 | E2 F G2 A | B2 [Be] [Ae][Ac][FA] | %31
w: |||||
w: shines * in,|when love *|shines *|in, * Joy and|peace to o- thers bring-|
w: |||||
w: |||||
 [EG]3 [DF]3 | E6 |] %33
w: ||
w: ing, when|love|
w: ||
w: ||
V:2
 E2 x4 | x6 | E3 x3 | x6 | x6 | x6 | x6 | x6 | x3 G2 x | x6 | x3 D2 x | x6 | E2 F G2 A | x6 | x6 | %15
 E3- E2 || x | x6 | x6 | x6 | x6 | x3 G2 x | x6 | (F2 B) (A2 F) | [FB-]3 [F-A] x4 | x6 | x6 | x6 | %28
 x5 | E2 F G2 A | B2 x4 | x6 | E6 |] %33
V:3
 [E,G,]2 [E,A,] [E,B,]2 [E,B,] | [E,E]2 [E,E] [E,E][E,B,][A,B,] | [G,B,]3 [E,B,]3 | [B,,B,]6 | %4
 [B,,B,]2 [B,,B,] [B,,B,]2 [B,,B,] | [B,,D]2 [B,,D] [B,,B,][B,,B,][B,,B,] | [B,,B,]3 B,3 | %7
 [E,B,]6 | [E,E]2 [E,E] [E,B,]2 [E,B,] | [E,B,]2 [E,E] [E,E]3 | [F,B,]2 [F,B,] [B,,B,]2 [B,,B,] | %11
 [D,B,]2 [B,,B,] [E,B,]3 | E,2 F, G,2 A, | B,2 B, [E,B,]2 [A,C] | B,3 [B,,A,]3 | %15
 [E,G,]3- [E,G,]2 || E, | E,2 [E,E] [E,B,]2 [E,B,] | E3- E2 E | E2- E ([A,C]2 [A,E]) | %20
 [E,E]3- [E,E]2 z | [C,E]2 [C,C] ([C,C][D,=B,])[E,C] | [D,B,]2 [D,B,] [D,B,][D,B,][G,B,] | %23
 (B,2 F) (F2 E) | [B,,D]3- [B,,D]2 B,, x2 | E,2 [E,B,] [E,E]2 [E,E] | B,3- B,2 E | %27
 (z [A,E]) ([A,C]2 [A,E]) x | [E,E]3- [E,E]2 | E,2 F, G,2 A, | B,2 [G,_D] [A,C][A,E][A,C] | %31
 (B,2 B,) (B,2 A,) | [E,G,]6 |] %33
V:4
 x6 | x6 | x6 | x6 | x6 | x6 | x3 (B,,C,D,) | x6 | x6 | x6 | x6 | x6 | E,2 F, G,2 x | x6 | x6 | %15
 x5 || E, | E,2 x4 | E,2 E, E,2 x | x2 A, x3 | x6 | x6 | x6 | F,3 F,3 | x5 B,, x2 | E,2 x4 | %26
 (E,2 E, E,2) x | E3 A, x2 | x5 | E,2 F, G,2 A, | B,2 x4 | B,3 B,,3 | x6 |] %33

